icons/tensorflow/tensorflow-line.svg

<?xml version="1.0" encoding="UTF-8" standalone="no"?>
<svg
   xmlns:dc="http://purl.org/dc/elements/1.1/"
   xmlns:cc="http://creativecommons.org/ns#"
   xmlns:rdf="http://www.w3.org/1999/02/22-rdf-syntax-ns#"
   xmlns:svg="http://www.w3.org/2000/svg"
   xmlns="http://www.w3.org/2000/svg"
   xmlns:xlink="http://www.w3.org/1999/xlink"
   xmlns:sodipodi="http://sodipodi.sourceforge.net/DTD/sodipodi-0.dtd"
   xmlns:inkscape="http://www.inkscape.org/namespaces/inkscape"
   viewBox="0 0 128 128"
   width="128"
   height="128"
   version="1.1"
   id="svg88"
   sodipodi:docname="tensorflow-line.svg"
   inkscape:version="1.0.2-2 (e86c870879, 2021-01-15)">
  <metadata
     id="metadata92">
    <rdf:RDF>
      <cc:Work
         rdf:about="">
        <dc:format>image/svg+xml</dc:format>
        <dc:type
           rdf:resource="http://purl.org/dc/dcmitype/StillImage" />
        <dc:title></dc:title>
      </cc:Work>
    </rdf:RDF>
  </metadata>
  <sodipodi:namedview
     pagecolor="#ffffff"
     bordercolor="#666666"
     borderopacity="1"
     objecttolerance="10"
     gridtolerance="10"
     guidetolerance="10"
     inkscape:pageopacity="0"
     inkscape:pageshadow="2"
     inkscape:window-width="1920"
     inkscape:window-height="1017"
     id="namedview90"
     showgrid="false"
     inkscape:snap-grids="true"
     inkscape:zoom="6.640625"
     inkscape:cx="13.70353"
     inkscape:cy="73.636577"
     inkscape:window-x="-8"
     inkscape:window-y="7"
     inkscape:window-maximized="1"
     inkscape:current-layer="svg88"
     inkscape:document-rotation="0" />
  <defs
     id="defs76">
    <path
       d="M54.74 128L32.9 115.32V40.55L0 59.56l.08-28.32L54.74 0v128zM59.65 0v128l21.84-12.68V79.31l16.49 9.53-.1-24.63-16.39-9.36v-14.3l32.89 19.01-.08-28.32L59.65 0z"
       id="a" />
    <path
       d="M54.74 128L32.9 115.32V40.55L0 59.56l.08-28.32L54.74 0v128zM59.65 0v128l21.84-12.68V79.31l16.49 9.53-.1-24.63-16.39-9.36v-14.3l32.89 19.01-.08-28.32L59.65 0z"
       id="b" />
  </defs>
  <g
     id="use78"
     style="opacity:1">
    <path
       style="color:#000000;font-style:normal;font-variant:normal;font-weight:normal;font-stretch:normal;font-size:medium;line-height:normal;font-family:sans-serif;font-variant-ligatures:normal;font-variant-position:normal;font-variant-caps:normal;font-variant-numeric:normal;font-variant-alternates:normal;font-variant-east-asian:normal;font-feature-settings:normal;font-variation-settings:normal;text-indent:0;text-align:start;text-decoration:none;text-decoration-line:none;text-decoration-style:solid;text-decoration-color:#000000;letter-spacing:normal;word-spacing:normal;text-transform:none;writing-mode:lr-tb;direction:ltr;text-orientation:mixed;dominant-baseline:auto;baseline-shift:baseline;text-anchor:start;white-space:normal;shape-padding:0;shape-margin:0;inline-size:0;clip-rule:nonzero;display:inline;overflow:visible;visibility:visible;isolation:auto;mix-blend-mode:normal;color-interpolation:sRGB;color-interpolation-filters:linearRGB;solid-color:#000000;solid-opacity:1;vector-effect:none;fill:#ff6f00;fill-opacity:0;fill-rule:nonzero;stroke:none;stroke-width:0.986663;stroke-linecap:butt;stroke-linejoin:miter;stroke-miterlimit:4;stroke-dasharray:none;stroke-dashoffset:0;stroke-opacity:1.0;color-rendering:auto;image-rendering:auto;shape-rendering:auto;text-rendering:auto;enable-background:accumulate;stop-color:#000000;stop-opacity:1;"
       d="M 61.582691,127.14313 40.033969,114.63224 V 40.859439 L 7.5727547,59.615904 7.6516878,31.673606 61.582691,0.85025244 Z M 66.427206,0.85025244 V 127.14313 L 87.975928,114.63224 V 79.102499 l 16.270082,9.402899 -0.0987,-24.301511 -16.171412,-9.235166 V 40.859439 l 32.451352,18.756465 -0.0789,-27.942298 z"
       id="path1566" />
    <path
       style="color:#000000;font-style:normal;font-variant:normal;font-weight:normal;font-stretch:normal;font-size:medium;line-height:normal;font-family:sans-serif;font-variant-ligatures:normal;font-variant-position:normal;font-variant-caps:normal;font-variant-numeric:normal;font-variant-alternates:normal;font-variant-east-asian:normal;font-feature-settings:normal;font-variation-settings:normal;text-indent:0;text-align:start;text-decoration:none;text-decoration-line:none;text-decoration-style:solid;text-decoration-color:#000000;letter-spacing:normal;word-spacing:normal;text-transform:none;writing-mode:lr-tb;direction:ltr;text-orientation:mixed;dominant-baseline:auto;baseline-shift:baseline;text-anchor:start;white-space:normal;shape-padding:0;shape-margin:0;inline-size:0;clip-rule:nonzero;display:inline;overflow:visible;visibility:visible;isolation:auto;mix-blend-mode:normal;color-interpolation:sRGB;color-interpolation-filters:linearRGB;solid-color:#000000;solid-opacity:1;vector-effect:none;fill:#000000;fill-opacity:1;fill-rule:nonzero;stroke:none;stroke-linecap:butt;stroke-linejoin:miter;stroke-miterlimit:4;stroke-dasharray:none;stroke-dashoffset:0;stroke-opacity:1.0;color-rendering:auto;image-rendering:auto;shape-rendering:auto;text-rendering:auto;enable-background:accumulate;stop-color:#000000;stop-opacity:1;"
       d="M 62.076172 0 L 7.1582031 31.386719 L 7.0761719 60.472656 L 39.541016 41.714844 L 39.541016 114.91602 L 62.076172 128 L 62.076172 127.14258 L 62.076172 0 z M 65.933594 0 L 65.933594 0.84960938 L 65.933594 128 L 88.46875 114.91602 L 88.46875 79.957031 L 104.74219 89.363281 L 104.63867 63.916016 L 88.46875 54.681641 L 88.46875 41.714844 L 120.92383 60.472656 L 120.8418 31.386719 L 65.933594 0 z M 61.089844 1.7011719 L 61.089844 126.28711 L 40.527344 114.34766 L 40.527344 40.003906 L 8.0683594 58.759766 L 8.1445312 31.960938 L 61.089844 1.7011719 z M 66.919922 1.7011719 L 119.85547 31.960938 L 119.93164 58.759766 L 87.482422 40.003906 L 87.482422 55.255859 L 103.6543 64.490234 L 103.74805 87.648438 L 87.482422 78.248047 L 87.482422 114.34766 L 66.919922 126.28711 L 66.919922 1.7011719 z "
       id="path1568" />
  </g>
  <use
     xlink:href="#a"
     fill-opacity="0"
     stroke="#000"
     stroke-opacity="0"
     id="use80" />
</svg>

<svg xmlns="http://www.w3.org/2000/svg" xmlns:xlink="http://www.w3.org/1999/xlink" viewBox="0 0 128 128"><defs><path d="M54.74 128L32.9 115.32V40.55L0 59.56l.08-28.32L54.74 0v128zM59.65 0v128l21.84-12.68V79.31l16.49 9.53-.1-24.63-16.39-9.36v-14.3l32.89 19.01-.08-28.32L59.65 0z" id="tensorflow-line-a"/></defs><g color="#000" font-weight="400" font-family="sans-serif"><path style="line-height:normal;font-variant-ligatures:normal;font-variant-position:normal;font-variant-caps:normal;font-variant-numeric:normal;font-variant-alternates:normal;font-variant-east-asian:normal;font-feature-settings:normal;font-variation-settings:normal;text-indent:0;text-align:start;text-decoration-line:none;text-decoration-style:solid;text-decoration-color:#000;text-transform:none;text-orientation:mixed;white-space:normal;shape-padding:0;shape-margin:0;inline-size:0;isolation:auto;mix-blend-mode:normal;solid-color:#000;solid-opacity:1" d="M61.583 127.143l-21.549-12.51V40.858L7.573 59.616l.079-27.942L61.582.85zM66.427.85v126.293l21.549-12.51v-35.53l16.27 9.402-.099-24.301-16.171-9.235v-14.11l32.451 18.757-.079-27.942z" overflow="visible" fill="none"/><path style="line-height:normal;font-variant-ligatures:normal;font-variant-position:normal;font-variant-caps:normal;font-variant-numeric:normal;font-variant-alternates:normal;font-variant-east-asian:normal;font-feature-settings:normal;font-variation-settings:normal;text-indent:0;text-align:start;text-decoration-line:none;text-decoration-style:solid;text-decoration-color:#000;text-transform:none;text-orientation:mixed;white-space:normal;shape-padding:0;shape-margin:0;inline-size:0;isolation:auto;mix-blend-mode:normal;solid-color:#000;solid-opacity:1" d="M62.076 0L7.158 31.387l-.082 29.086 32.465-18.758v73.201L62.076 128V0zm3.858 0v128l22.535-13.084V79.957l16.273 9.406-.103-25.447-16.17-9.234V41.715l32.455 18.758-.082-29.086L65.934 0zM61.09 1.701v124.586l-20.563-11.94V40.005L8.068 58.76l.077-26.8L61.09 1.702zm5.83 0l52.935 30.26.077 26.799-32.45-18.756v15.252l16.172 9.234.094 23.158-16.266-9.4v36.1l-20.562 11.94V1.7z" overflow="visible"/></g><use xlink:href="#tensorflow-line-a" fill-opacity="0" stroke="#000" stroke-opacity="0"/></svg>
